packages/foundations/assets/icons/functional/images/transportation/pedestrian_24.svg

<svg width="24" height="24" viewBox="0 0 24 24" fill="none" xmlns="http://www.w3.org/2000/svg">
<g clip-path="url(#clip0_187_920)">
<path fill-rule="evenodd" clip-rule="evenodd" d="M10.7827 7.54619C10.9368 7.45375 11.1216 7.42293 11.3066 7.42293C12.0154 7.42293 12.5084 7.88516 12.4468 8.68647L12.1386 13.5246L14.7889 16.1441C14.8814 16.2674 14.9738 16.4214 15.0354 16.6063L16.0832 20.7974C16.2064 21.4446 15.7134 21.9993 15.097 21.9993C14.6348 21.9993 14.265 21.6911 14.1418 21.2597L13.1556 17.3459L10.4129 14.634C10.228 14.4491 10.0431 14.2335 10.1047 13.8328L10.3513 9.85746L9.18022 10.3813L8.90282 12.1687C8.81042 12.6618 8.40975 13.0007 7.91668 13.0007C7.39285 13.0007 6.80728 12.5385 6.93055 11.8605L7.26958 9.51839C7.33122 9.17952 7.57775 8.90208 7.88592 8.7481L10.7827 7.54619ZM9.63347 16.0118C10.2289 16.0118 10.6196 16.454 10.6196 16.9979C10.6196 17.1211 10.6196 17.2753 10.558 17.3986L8.81042 21.3837C8.68715 21.7535 8.31735 22 7.88592 22C7.30035 22 6.89978 21.507 6.89978 20.9832C6.89978 20.8599 6.96141 20.7057 6.99228 20.5825L8.70897 16.5974C8.89387 16.2276 9.26367 16.0118 9.63347 16.0118ZM14.8745 9.7439L16.5454 10.597C16.8844 10.7511 17.1002 11.1209 17.1002 11.46C17.1002 12.0763 16.6071 12.4769 16.0832 12.4769C15.929 12.4769 15.8058 12.4461 15.6517 12.3844L13.9808 11.5312C13.611 11.3463 13.4262 10.9765 13.4262 10.6374C13.4262 10.1137 13.7343 9.58972 14.4123 9.58972C14.5664 9.58972 14.7513 9.65135 14.8745 9.7439ZM11.9507 2C13.0584 2 13.9507 2.89224 13.9507 3.99998C13.9507 5.10762 13.0584 6.00006 11.9507 6.00006C10.8737 6.00006 9.95069 5.10762 9.95069 3.99998C9.95069 2.89224 10.8737 2 11.9507 2Z" fill="#1A1C1F"/>
</g>
<defs>
<clipPath id="clip0_187_920">
<rect width="24" height="24" fill="white"/>
</clipPath>
</defs>
</svg>

<svg xmlns="http://www.w3.org/2000/svg" width="24" height="24" fill="none"><g clip-path="url(#a)"><path fill="#1A1C1F" fill-rule="evenodd" d="M10.783 7.546c.154-.092.339-.123.524-.123.708 0 1.201.462 1.14 1.263l-.308 4.839 2.65 2.62c.092.122.185.276.246.461l1.048 4.191A1.004 1.004 0 0 1 15.097 22c-.462 0-.832-.308-.955-.74l-.986-3.913-2.743-2.712c-.185-.185-.37-.4-.308-.801l.246-3.976-1.17.524-.278 1.788a.99.99 0 0 1-.986.832c-.524 0-1.11-.462-.986-1.14l.339-2.343c.061-.338.308-.616.616-.77zm-1.15 8.466c.596 0 .987.442.987.986 0 .123 0 .277-.062.4L8.81 21.385c-.123.37-.493.616-.924.616-.586 0-.986-.493-.986-1.017 0-.123.061-.277.092-.4l1.717-3.986c.185-.37.555-.585.924-.585m5.242-6.268 1.67.853a.98.98 0 0 1 .555.863c0 .616-.493 1.017-1.017 1.017-.154 0-.277-.03-.431-.093l-1.671-.853a1 1 0 0 1-.555-.894c0-.523.308-1.047.986-1.047a.83.83 0 0 1 .462.154M11.95 2c1.107 0 2 .892 2 2s-.893 2-2 2c-1.077 0-2-.892-2-2s.923-2 2-2" clip-rule="evenodd"/></g><defs><clipPath id="a"><path fill="#fff" d="M0 0h24v24H0z"/></clipPath></defs></svg>
